X:1
T:The night before Larry was stretched
L:1/8
M:6/8
I:linebreak $
K:C
V:1 treble 
V:1
 c2 B | ADD DED | C3 z EG | ADD DEG | A c2- c2 B | ADD DED | C3 z EG | ADD EDC | D D2- D2 G |$ %9
 Add ded | c3 z GG | Add ded | cAc- c2 G | Add ded | c3 c2 B | ADD DEG | A c2- c2 z || %17
